X:53
T:Grand Parade. JJo8.053, The
B:J.Johnson Choice Collection Vol 8 1758
Z:vmp.Simon Wilson 2013 www.village-music-project.org.uk
M:6/8
L:1/8
Q:3/8=120
K:D
|:d2f agf|e2f gfe|fed edc|dAG FED|
d2f agf|e2f gfe|fed edc|d3D3:|
|:f2d cBA|B2G FED|DFD EGE|FAG FED|
GBG AcA|Bed cBA|dfd edc|d3D3:|

